X: 9115
T: Da Tief Upon Da Lum
R: reel
M: 4/4
K: Amixolydian
A2e2 Aece|A2AA {=c}d2BG|A2ed efg2|agfe {^c}d2BG:|
A2(3cBA Aece|A2B=c dBGB|A2(3^cBA Aece|dBGB {c}d2BG:|

